X:1
T:Title
%%score { ( 1 3 ) | ( 2 4 ) }
L:1/8
M:4/4
K:Db
V:1 treble nm="Grand Piano"
V:3 treble 
V:2 bass 
V:4 bass 
V:1
 z4 z2[Q:1/4=94] [DF][EG] | [FA][FA][_F=G][=FA] [Fd][Fd][_Gc][GB] | [FA]3 [DF] [FA]2 DE | %3
 FFF[EG] [FA][GB][FA][DF] |[M:9/8] [DF]3 [DE] [CE]2- [CE][DF][EG] | %5
[M:4/4] [FA][FA][_F=G][=FA] [Fd][Fd][_Gc][GB] | [FA]3 [DF] [FA]2 [FA][FA] | %7
[M:17/16] BBBB[FA][Fd]3/2[=G,D][G,DE] |[M:7/8] [A,DF]<[A,DF][A,CF][K:bass] [G,CE] [F,D]3 | %9
[M:1/4][K:treble] dd |[M:4/4] c6 z2 | [FA]4 z4 | EEAc ecAB | %13
[M:9/8] c<dc- c/B/ [CA]2- [CA][CE][DF] |[M:4/4] [EG][EG][=DF][EG] [Ac][GB][FA][EG] | %15
[M:17/16] [DF][FA][Fd][Ae]eB3/2cB |[M:4/4] B[CFA] z2 z2 [A,CF]>[K:bass][G,CE] |[M:3/4] [F,D]6 |] %18
V:2
 z4 z2 [D,A,][D,A,] | [D,D][D,D][D,D][D,D] [D,A,][D,A,][D,B,][D,C] | %2
 [D,D]3 [D,A,] [D,D]2 [D,F,][D,G,D] | [D,A,D][D,A,D][D,A,D][D,A,] [D,D][D,D][D,A,][D,A,] | %4
[M:9/8] [B,,=G,]3 [E,G,] [A,,A,]2- [A,,A,][D,A,][D,A,] | %5
[M:4/4] [D,D][D,D][D,D][D,D] [D,A,][D,A,][D,B,][D,C] | [D,D]3 [D,A,] [D,D]2 [D,D][D,D] | %7
[M:17/16] [G,DG][G,DG][G,DG][G,DG][D,D][D,A,]3/2B,,B,, |[M:7/8] A,,<A,,A,, A,, D,3 | %9
[M:1/4][K:treble] FF |[M:4/4] G6[K:bass] z2 | D,D,D,D, [D,A,D]2 [=D,A,_C]2 | %12
 [E,A,C][E,A,C][E,A,C][E,A,E] [E,CE][E,A,E][E,C][E,D] | %13
[M:9/8] [E,A,E]<[E,A,F][E,=G,E]- [E,G,E]/[E,G,D]/ [A,,A,]2- [A,,A,][A,,A,][A,,A,] | %14
[M:4/4] [A,,A,][A,,A,][A,,A,][A,,A,] [A,,A,][A,,A,][A,,A,][A,,A,] | %15
[M:17/16] [D,A,][D,A,][D,A,][F,_C][K:treble][G,B,G][G,DG]3/2[=G,D_F][G,DF] | %16
[M:4/4] [A,DF][K:bass]A,,D,F, B,A, A,,>A,, |[M:3/4] D,6 |] %18
V:3
 x8 | x8 | x8 | x8 |[M:9/8] x9 |[M:4/4] x8 | x8 |[M:17/16] x17/2 |[M:7/8] x3[K:bass] x4 | %9
[M:1/4][K:treble] x2 |[M:4/4] z2 A,A, A,[EG][Ac][CGB] | DDDD F2 F2 | x8 |[M:9/8] x9 |[M:4/4] x8 | %15
[M:17/16] x17/2 |[M:4/4] x15/2[K:bass] x/ |[M:3/4] x6 |] %18
V:4
 x8 | x8 | x8 | x8 |[M:9/8] x9 |[M:4/4] x8 | x8 |[M:17/16] x17/2 |[M:7/8] x7 | %9
[M:1/4][K:treble] x2 |[M:4/4] z2[K:bass] A,,A,, A,,[A,,A,][A,,A,]A,, | x8 | x8 |[M:9/8] x9 | %14
[M:4/4] x8 |[M:17/16] x4[K:treble] x9/2 |[M:4/4] x[K:bass] x7 |[M:3/4] x6 |] %18

